X: 13720
T: Forbes Morrison
R: strathspey
M: 4/4
K: Amajor
d|c<A E>D C>EA,>C|D>FB>A (3Gfe .d/.c/.B|c<A E>D C>E A,>C|
(3.D.F.B (3G.E.G {G}(A2A):|g|a<f g>e f>d e>c|d>Bc>A B/c/.d e/f/.g|
a<f g>e f>de>A|(3Gfe (3dcB {G}(A2 A>)g|(3afa (3geg f>de>c|
d>Bc>A (3Bcd (3efg|(3aga (3efg (3aed (3cBA|(Gfe (3dcB {G}(A2A)||

